X:69
T:Hoosiers in Heat
R:reel
C: 1990, 2010 L.E. McCullough 
M:4/4
L:1/8
K:G
|:GABd edBA|GABG AGED|GABd e~g3|edBA ~G3A|
~B3d e~g3|egdB AGEG|GABd edBA|gedB ~G3A:| 
|:~B3d ~e3g|~a3b ageg|~a3b ageg|dgba ~g3e|
d~B3 e~g3|~a3b ageg|~b3g agef|gedB ~G3A:|



